symbols/web/update_disabled/materialsymbolsrounded/update_disabled_40px.svg

<svg xmlns="http://www.w3.org/2000/svg" height="40" width="40"><path d="M20.083 35q-3.125 0-5.875-1.188-2.75-1.187-4.791-3.229-2.042-2.041-3.229-4.771Q5 23.083 5 19.958q0-2.375.667-4.479.666-2.104 1.916-3.896L3.417 7.417Q3 7 3.021 6.417q.021-.584.437-1Q3.875 5 4.458 5q.584 0 1 .417l29.125 29.166Q35 35 35 35.562q0 .563-.417.98-.416.416-1 .416-.583 0-1-.416l-4.166-4.125q-1.792 1.25-3.896 1.916-2.104.667-4.438.667Zm0-2.792q1.75 0 3.355-.479 1.604-.479 2.979-1.312L9.583 13.583q-.833 1.375-1.312 2.959-.479 1.583-.479 3.333 0 5.125 3.562 8.729 3.563 3.604 8.729 3.604Zm0-24.416q-1.791 0-3.437.479t-3.063 1.312l-2-2q1.834-1.25 3.979-1.916Q17.708 5 20.083 5q3.375 0 6.375 1.458 3 1.459 5.167 4.042V7.625q0-.583.396-.979T33 6.25q.583 0 .979.396t.396.979v6.333q0 .625-.396 1.021-.396.396-.979.396h-6.375q-.583 0-.979-.396t-.396-1.021q0-.583.396-.979t.979-.396h3.083q-1.791-2.208-4.291-3.5-2.5-1.291-5.334-1.291Zm1.334 9.666-2.792-2.791v-1.709q0-.583.396-.979t1.021-.396q.583 0 .979.396t.396.979Zm11 10.959-2-2q.583-.959 1-2.063.416-1.104.583-2.312.125-.584.562-.98.438-.395 1.021-.312.625.083.959.583.333.5.208 1.167-.25 1.583-.812 3.062-.563 1.48-1.521 2.855Z"/></svg>

<svg xmlns="http://www.w3.org/2000/svg" height="40" width="40"><path d="M20.083 35Q16.958 35 14.208 33.812Q11.458 32.625 9.417 30.583Q7.375 28.542 6.188 25.812Q5 23.083 5 19.958Q5 17.583 5.667 15.479Q6.333 13.375 7.583 11.583L3.417 7.417Q3 7 3.021 6.417Q3.042 5.833 3.458 5.417Q3.875 5 4.458 5Q5.042 5 5.458 5.417L34.583 34.583Q35 35 35 35.562Q35 36.125 34.583 36.542Q34.167 36.958 33.583 36.958Q33 36.958 32.583 36.542L28.417 32.417Q26.625 33.667 24.521 34.333Q22.417 35 20.083 35ZM20.083 32.208Q21.833 32.208 23.438 31.729Q25.042 31.25 26.417 30.417L9.583 13.583Q8.75 14.958 8.271 16.542Q7.792 18.125 7.792 19.875Q7.792 25 11.354 28.604Q14.917 32.208 20.083 32.208ZM20.083 7.792Q18.292 7.792 16.646 8.271Q15 8.75 13.583 9.583L11.583 7.583Q13.417 6.333 15.562 5.667Q17.708 5 20.083 5Q23.458 5 26.458 6.458Q29.458 7.917 31.625 10.5V7.625Q31.625 7.042 32.021 6.646Q32.417 6.25 33 6.25Q33.583 6.25 33.979 6.646Q34.375 7.042 34.375 7.625V13.958Q34.375 14.583 33.979 14.979Q33.583 15.375 33 15.375H26.625Q26.042 15.375 25.646 14.979Q25.25 14.583 25.25 13.958Q25.25 13.375 25.646 12.979Q26.042 12.583 26.625 12.583H29.708Q27.917 10.375 25.417 9.083Q22.917 7.792 20.083 7.792ZM21.417 17.458 18.625 14.667V12.958Q18.625 12.375 19.021 11.979Q19.417 11.583 20.042 11.583Q20.625 11.583 21.021 11.979Q21.417 12.375 21.417 12.958ZM32.417 28.417 30.417 26.417Q31 25.458 31.417 24.354Q31.833 23.25 32 22.042Q32.125 21.458 32.562 21.062Q33 20.667 33.583 20.75Q34.208 20.833 34.542 21.333Q34.875 21.833 34.75 22.5Q34.5 24.083 33.938 25.562Q33.375 27.042 32.417 28.417Z"/></svg>
